!!!ONB: MCCC : IWM0418_03 : Extracted Monophonic Melody
!!!COM: Mozart, Wolfgang Amadeus
!!!OPR: Piano Sonata No.18
!!!OMV: 3
!!!SCT: K.576
!!!ODT: 1789///
**kern
*thru
*staff1
*clefG2
*k[f#c#]
*D:
*M2/4
*MM104
=1
8.dd
32ee
32dd
8cc#
8dd
=2
8dd#
8ee
8ee
8r
=3
8.ee
32ff#
32ee
8dd
8ee
=4
8ee#
8ff#
8ff#
8r
=5
16.aa
32bb
16.gg
32aa
8ff#
8dd
=6
16.gg
32aa
16.ff#
32gg
8ee
8cc#
=7
8dd
8dd
8cc#
8cc#
=8
16.b
32a
16.b
32cc#
8a
8r
=9
8.dd
32ee
32dd
8cc#
8dd
=10
8dd#
8ee
8ee
8r
=11
8.ee
32ff#
32ee
8dd
8ee
=12
8ee#
8ff#
8ff#
8r
=13
*Xtuplet
24d
24f#
24a
24dd
24ee
24ff#
24gg
24ff#
24gg
24bb
24gg
24dd
=14
24a
24cc#
24ee
24aa
24bb
24ccc#
24ddd
24ccc#
24bb
24aa
24gg
24ff#
=15
24dd#
24ee
24gg
24bb
24gg
24ee
24aa
24ff#
24dd
24gg
24ee
24cc#
=16
4dd
8r
8ddd
=17
16ccc#
16aa
4gg
16ee
16cc#
=18
4dd
8r
8ddd
=19
16ccc#
16aa
4gg
16ee
16cc#
=20
*Xtuplet
24dd
24a
24ff#
24ee
24cc#
24gg
24ff#
24dd
24aa
24gg
24ee
24cc#
=21
24dd
24a
24ff#
24ee
24cc#
24gg
24ff#
24dd
24aa
24gg
24ee
24cc#
=22
24dd
24ff#
24dd
24a
24dd
24a
24f#
24a
24f#
24d
24f#
24d
=23
8A
8r
8ff#
8r
=24
24A
24c#
24e
24a
24cc#
24ee
24ff#
24aa
24ddd
24aa
24ff#
24dd
=25
8aa
8a
4r
=26
2r
=27
8r
16ddd
16ff#
8aa
8gg#
=28
2r
=29
8r
16eee
16gg#
8bb
8aa#
=30
8.bb
32aa#
32bb
8ccc#
8ddd
=31
8gg
8ff#
8r
8ddd
=32
8ff
8ee
8r
16ee
16ccc#
=33
8bb
4aa
8dd#
=34
8.ee
32ff#
32ee
8dd#
8ee
=35
8ee#
8ff#
8ff#
8r
=36
8.gg#
32aa
32gg#
8ff#
8gg#
=37
8gg#
8aa
8aa
8r
=38
8.bb
32ccc#
32bb
8aa
8bb
=39
8.ccc#
32ddd
32ccc#
8bb
8ccc#
=40
*tuplet
24ddd
24bb
24gg#
24ee
24dd
24b
*Xtuplet
24g#
24b
24dd
24ee
24gg#
24bb
=41
24ddd
24bb
24gg#
24ee
24dd
24b
24g#
24b
24dd
24ee
24gg#
24bb
=42
24ddd
24bb
24ddd
24ccc#
24aa
24ccc#
24bb
24gg#
24bb
24aa
24ff#
24aa
=43
24gg#
24ee
24gg#
24ff#
24dd
24ff#
24ee
24cc#
24ee
24dd
24b
24dd
=44
8cc#
24eee
24ccc#
24aa
24gg#
24bb
24ee
24eee
24ddd
24bb
=45
24aa
24ccc#
24ee
24eee
24ccc#
24aa
24gg#
24bb
24ee
24eee
24ddd
24bb
=46
24aa
24ccc#
24ee
4eee
[8ddd
=47
8ddd]
4ccc#
[8bb
=48
8bb]
4aa
8gg#
=49
24aa
24ccc#
24ee
24ff#
24aa
24dd
24cc#
24ee
24a
24b
24dd
24g#
=50
8a
8r
8ccc#
8bb
=51
8aa
8gg#
8ff#
8ee
=52
16ee
16dd
8cc#
[4ee
=53
16ee]
8dd
8cc#
8b
16a
=54
8cc#
8b
*tuplet
24ccc#
24ddd
24ccc#
24bb
24ddd
24eee#
=55
*Xtuplet
24aa
24bb
24aa
24gg#
24bb#
24ccc#
24ff#
24gg
24ff#
24ee
24gg#
24aa
=56
16ee
16dd
8cc#
[4ee
=57
16ee]
16ff#
16dd
16b
8a
16cc#
16b
=58
8a
8r
24aa
24ee
24cc#
24a
24e
24c#
=59
8B
8r
24bb
24gg#
24dd
24b
24g#
24d
=60
8c#
8r
24ccc#
24aa
24ee
24cc#
24a
24e
=61
8d
8r
24ddd
24aa
24ff#
24dd
24a
24f#
=62
8e
8r
24rff
24a
24cc#
24ee
24gg
24ccc#
=63
24eee
24gg
24eee
24ddd
24ff#
24ddd
24ccc#
24ee
24ccc#
24bb
24gg
24bb
=64
24aa
24ff#
24aa
24gg
24ee
24gg
24ff#
24dd
24ff#
24ee
24cc#
24ee
=65
8.dd
32ee
32dd
8cc#
8dd
=66
8dd#
8ee
8ee
8r
=67
8.ee
32ff#
32ee
8dd
8ee
=68
8ee#
8ff#
8ff#
8r
=69
16.aa
32bb
16.gg
32aa
8ff#
8dd
=70
16.gg
32aa
16.ff#
32gg
8ee
8cc#
=71
8dd
8dd
8cc#
8cc#
=72
16.b
32a
16.b
32cc#
8a
8r
=73
8.dd
32ee
32dd
8cc#
8dd
=74
8dd#
8ee
8ee
8r
=75
8.ee
32ff#
32ee
8dd
8ee
=76
8ee#
8ff#
8ff#
8r
=77
24d
24f#
24a
24dd
24ee
24ff#
24gg
24ff#
24gg
24bb
24gg
24dd
=78
24a
24cc#
24ee
24aa
24bb
24ccc#
24ddd
24ccc#
24bb
24aa
24gg
24ff#
=79
24dd#
24ee
24gg
24bb
24gg
24ee
24aa
24ff#
24dd
24gg
24ee
24cc#
=80
4dd
8r
8ddd
=81
16ccc#
16aa
4gg
16ee
16cc#
=82
4dd
8r
8ddd
=83
16ccc#
16aa
4gg
16ee
16cc#
=84
24dd
24a
24ff
24ee
24cc#
24gg
24ff
24dd
24aa
24gg
24ee
24cc#
=85
24dd
24a
24ff
24ee
24cc#
24gg
24ff
24dd
24aa
24bb-
24gg
24ee
=86
24ff
24cc
24aa
24gg
24ee
24bb-
24aa
24ff
24ccc
24bb-
24gg
24ee
=87
24ff
24cc
24aa
24gg
24ee
24bb-
24aa
24ff
24ccc
24ddd
24bb
24gg#
=88
4aa
8r
8ddd
=89
8ccc#
8ccc
8bb
8bb-
=90
8aa
8gg
8ff
8ee-
=91
24dd
24g
24b-
24dd
24gg
24bb-
24ddd
24ccc
24bb-
24aa
24gg
24ff
=92
8ee
8r
8aa
8r
=93
24c
24e
24g
24cc
24ee
24gg
24aa
24ccc
24fff
24ccc
24aa
24ff
=94
8ccc
8cc
4r
=95
8.ff
32gg
32ff
8ee
8ff
=96
8ff#
8gg
8gg
8r
=97
8.gg
32aa
32gg
8ff#
8gg
=98
8gg#
8aa
8aa
8r
=99
24bb-
24ccc
24ddd
24ccc
24bb-
24aa
24gg
24aa
24gg
24ff
24ee-
24dd
=100
24cc
24dd
24ee-
24dd
24cc
24b-
24a
24b-
24cc
24b-
24a
24g
=101
24f#
24cc
24dd
24ee-
24dd
24cc
24aa
24gg
24ff#
24ccc
24bb-
24aa
=102
24fff
24eee
24ddd
24ccc
24bb
24aa
24gg#
24ff
24ee
24dd
24cc
24b
=103
8.a
32b
32a
8g#
8a
=104
8a#
8b
[4b
=105
8.b]
32cc
32b
8a
8b
=106
8b#
8cc#
[4cc#
=107
8.cc#]
32dd
32cc#
8b
8cc#
=108
*tuplet
24dd
24f#
24b
24dd
24ff#
24bb
*Xtuplet
24ddd
24bb
24ff#
24bb
24ff#
24dd
=109
8.gg
32aa
32gg
8ff#
8gg
=110
24cc#
24e
24a
24cc#
24ee
24aa
24ccc#
24aa
24ee
24aa
24ee
24cc#
=111
8.ff#
32gg
32ff#
8ee
8ff#
=112
24b
24e
24g
24b
24g
24b
24ee
24b
24ee
24gg
24ee
24gg
=113
24bb
24ccc
24bb
24aa
24gg
24ff#
24gg
24aa
24gg
24ff#
24ee
24dd
=114
8cc#
8r
8ff#
8r
=115
24A
24c#
24e
24a
24cc#
24ee
24ff#
24aa
24ddd
24aa
24ff#
24dd
=116
8aa
8a
4r
=117
2r
=118
8r
16gg
16b
8dd
8cc#
=119
2r
=120
8r
16aa
16cc#
8ee
8dd#
=121
8.ee
32dd#
32ee
8ff#
8gg
=122
8cc
8b
8r
8gg
=123
8b-
8a
8r
16a
16ff#
=124
8ee
4dd
8g#
=125
8.a
32b
32a
8g#
8a
=126
8a#
8b
8b
8r
=127
8.cc#
32dd
32cc#
8b
8cc#
=128
8cc#
8dd
8dd
8r
=129
8.ee
32ff#
32ee
8dd
8ee
=130
8.ff#
32gg
32ff#
8ee
8ff#
=131
*tuplet
24gg
24ee
24cc#
24a
24g
24e
*Xtuplet
24c#
24e
24g
24a
24cc#
24ee
=132
24gg
24ee
24cc#
24a
24g
24e
24c#
24e
24g
24a
24cc#
24ee
=133
24gg
24ee
24gg
24ff#
24dd
24ff#
24ee
24cc#
24ee
24dd
24b
24dd
=134
24cc#
24a
24cc#
24b
24g
24b
24a
24f#
24a
24e
24g
24e
=135
8f#
24aa
24ff#
24dd
24cc#
24ee
24a
24aa
24gg
24ee
=136
24dd
24ff#
24a
24aa
24ff#
24dd
24cc#
24ee
24a
24aa
24gg
24ee
=137
24dd
24ff#
24a
4aa
[8gg
=138
8gg]
4ff#
[8ee
=139
8ee]
4dd
8cc#
=140
24dd
24ddd
24ff#
24bb
24ddd
24gg
24ff#
24aa
24dd
24ee
24gg
24cc#
=141
8dd
8r
8ff#
8ee
=142
8dd
8cc#
8b
8a
=143
16a
16g
8f#
[4a
=144
16a]
8g
8f#
8e
16d
=145
8f#
8e
*tuplet
24ff#
24gg
24ff#
*Xtuplet
24ee
24gg#
24aa
=146
24dd
24ee
24dd
24cc#
24ee#
24ff#
24b
24cc
24b
24a
24cc#
24dd
=147
16a
16g
8f#
[4aa
=148
16aa]
16bb
16gg
16ee
8dd
16ff#
16ee
=149
8dd
8r
24ddd
24aa
24ff#
24dd
24a
24f#
=150
8e
8r
24eee
24ccc#
24gg
24ee
24cc#
24g
=151
8f#
8r
24ccc
24aa
24ff#
24dd
24cc
24a
=152
24r
24b
24dd#
24ff#
24bb
24b
24r
24ee
24gg#
24bb
24eee
24ee
=153
24r
24a
24cc#
24ee
24aa
24a
24r
24dd
24ff#
24aa
24ddd
24dd
=154
24r
24aa
24gg
24r
24gg
24ff#
24r
24gg
24ff#
24r
24ee
24dd
=155
24cc#
24a
24ee
24cc#
24aa
24ee
24ccc#
24aa
24eee
24ccc#
24aa
24ee
=156
24ff#
24dd
24aa
24ff#
24ddd
24aa
24ff#
24aa
24dd
24ff#
24a
24dd
=157
24cc#
24a
24ee
24cc#
24aa
24ee
24ccc#
24aa
24eee
24ccc#
24aa
24ee
=158
24ff
24dd
24aa
24ff
24ddd
24aa
24ff
24aa
24dd
24ff
24a
24dd
=159
*tuplet
24cc#
24r
24r
24r
24r
24cc#
24dd
24r
24r
24r
24r
24dd
=160
24ee
24r
24r
24r
24r
24ee
24ff#
24r
24r
24r
24r
24ff#
=161
*Xtuplet
24gg
24ccc#
24eee
24ff#
24eee
24ddd
24ee
24gg
24ccc#
24dd
24ccc#
24bb
=162
24cc#
24ee
24aa
24b
24aa
24gg
24a
24cc#
24ff#
24g
24ff#
24ee
=163
8.dd
32ee
32dd
8cc#
8dd
=164
8dd#
8ee
8ee
8r
=165
8ee
16ff#
16ee
8dd
8ee
=166
8ee#
8ff#
8ff#
8r
=167
16.aa
32bb
16.gg
32aa
8ff#
8dd
=168
16.gg
32aa
16.ff#
32gg
8ee
8cc#
=169
8dd
8dd
8cc#
8cc#
=170
16.b
32a
16.b
32cc#
8a
8r
=171
8.dd
32ee
32dd
8cc#
8dd
=172
8dd#
8ee
8ee
8r
=173
8.ee
32ff#
32ee
8dd
8ee
=174
8ee#
8ff#
8ff#
8r
=175
24d
24f#
24a
24dd
24ee
24ff#
24gg
24ff#
24gg
24bb
24gg
24dd
=176
24a
24cc#
24ee
24aa
24bb
24ccc#
24ddd
24ccc#
24bb
24aa
24gg
24ff#
=177
24dd#
24ee
24gg
24bb
24gg
24ee
24aa
24ff#
24dd
24gg
24ee
24cc#
=178
24dd
24ff#
24aa
24ddd
24dd
24ddd
24ddd
24ccc#
24bb
24aa
24gg
24ff#
=179
24b
24ee
24gg
24bb
24b
24bb
24bb
24aa
24gg
24ff#
24ee
24dd
=180
24a
24dd
24ff#
24aa
24ff#
24dd
24a
24cc#
24ee
24gg
24ee
24cc#
=181
24dd
24ff#
24aa
24ddd
24dd
24ddd
24ddd
24ccc#
24bb
24aa
24gg
24ff#
=182
24b
24ee
24gg
24bb
24b
24bb
24bb
24aa
24gg
24ff#
24ee
24dd
=183
24a
24dd
24ff#
24aa
24ff#
24dd
24a
24cc#
24ee
24gg
24ee
24cc#
=184
8dd
8r
8bb
8r
=185
8aa
8r
8gg
8r
=186
8ff#
8r
8gg
8r
=187
8ff#
8r
8cc#
8r
=188
8dd
8r
8ff#
8r
=189
4dd
4r
==
*-
